atlases.vromfs.bin_u/gameuiskin/stand.svg

<svg id="guns_sights" data-name="guns sights" xmlns="http://www.w3.org/2000/svg" width="128" height="128" viewBox="0 0 128 128">
  <metadata><?xpacket begin="﻿" id="W5M0MpCehiHzreSzNTczkc9d"?>
<x:xmpmeta xmlns:x="adobe:ns:meta/" x:xmptk="Adobe XMP Core 5.6-c138 79.159824, 2016/09/14-01:09:01        ">
   <rdf:RDF xmlns:rdf="http://www.w3.org/1999/02/22-rdf-syntax-ns#">
      <rdf:Description rdf:about=""/>
   </rdf:RDF>
</x:xmpmeta>
                                                                                                    
                                                                                                    
                                                                                                    
                                                                                                    
                                                                                                    
                                                                                                    
                                                                                                    
                                                                                                    
                                                                                                    
                                                                                                    
                                                                                                    
                                                                                                    
                                                                                                    
                                                                                                    
                                                                                                    
                                                                                                    
                                                                                                    
                                                                                                    
                                                                                                    
                                                                                                    
                           
<?xpacket end="w"?></metadata>
<defs>
    <style>
      .cls-1 {
        fill: #e0e0e0;
        fill-rule: evenodd;
      }
    </style>
  </defs>
  <path id="Shape_26_copy_2" data-name="Shape 26 copy 2" class="cls-1" d="M102.9,86.47c-7.923,14.07-36.278,28.759-37.861,29.571H64.959c-1.583-.812-29.938-15.5-37.861-29.571C18.946,71.995,14.981,15.408,14.981,15.408c0.96-1.15,2.909-3.379,2.909-3.379h94.222s1.948,2.23,2.908,3.379C115.019,15.408,111.054,71.995,102.9,86.47ZM101,24H29s-3.137,1.391-3.006,2.9c1.783,20.462,5.138,46.96,9.269,54.3,5.033,8.938,22.966,19.684,28.342,22.764a2.807,2.807,0,0,0,2.79,0C71.771,100.875,89.7,90.13,94.737,81.193c4.131-7.337,7.55-33.835,9.333-54.3C104.2,25.391,101,24,101,24ZM65,98.279c-9.723-5.7-21.562-14.006-24.847-19.839C37.4,73.547,32,30,32,30H98s-5.4,43.547-8.153,48.439C86.563,84.272,74.724,92.575,65,98.279Z"/>
</svg>

<svg width="128" height="128" viewBox="0 0 128 128" fill="none" xmlns="http://www.w3.org/2000/svg">
<path fill-rule="evenodd" clip-rule="evenodd" d="M102.9 86.47C94.977 100.54 66.622 115.229 65.039 116.041H64.959C63.376 115.229 35.021 100.541 27.098 86.47C18.946 71.995 14.981 15.408 14.981 15.408C15.941 14.258 17.89 12.029 17.89 12.029H112.112C112.112 12.029 114.06 14.259 115.02 15.408C115.02 15.408 111.054 71.995 102.9 86.47ZM101 24H29C29 24 25.863 25.391 25.994 26.9C27.777 47.362 31.132 73.86 35.263 81.2C40.296 90.138 58.229 100.884 63.605 103.964C64.0297 104.207 64.5106 104.335 65 104.335C65.4894 104.335 65.9703 104.207 66.395 103.964C71.771 100.875 89.7 90.13 94.737 81.193C98.868 73.856 102.287 47.358 104.07 26.893C104.2 25.391 101 24 101 24ZM65 98.279C55.277 92.579 43.438 84.273 40.153 78.44C37.4 73.547 32 30 32 30H98C98 30 92.6 73.547 89.847 78.439C86.563 84.272 74.724 92.575 65 98.279Z" fill="white"/>
</svg>
